X: 3929
T: Blackbird, The
R: jig
M: 6/8
K: Dmajor
ffA fed|Bcd BAG|FAd fed|e3 efg|
fga fed|Bcd g3|fed def|1 edc d2 e:|2 edc dfg||
a3 agf|ABg gfe|ABd fed|e3 efg|
fga fed|Bcd g3|fed Adf|e3 dfg|
a3 agf|abg B3|ABd fed|e3 efg|
ffe dAF|G3 edc|ddA dfa|g3 gfe||

